X: 636
T: Xiaogufu shangfeng
L: 1/16
M: 2/4
K: Eb
e2> G2B4 [I:setbarnb 1]| 
e2> G2B4 | 
f2 f g f e c2 | 
B2> F2B4 | 
f g f e f g f e | 
B2 c B A2 F2 | 
e e2 B e G2 F | 
E8 |]

@@@ Tune index: 9510
